X:1
T:MashUp
T:The Oogie Boogie Song / Friends On The Other Side 
%%score 1 { ( 2 4 ) | 3 }
L:1/8
Q:1/4=130
M:4/4
K:Db
V:1 treble-8 nm="Voice" snm="Vo."
V:2 treble nm="Piano" snm="Pno."
V:4 treble 
V:3 bass 
V:1
"^Swing" z8 | z8 | z8 | z8 | z8 | z8 | z8 |"Edim7" z8 ||[K:E]"C#m" B2 B2 B2 z B | B B2 B- B2 z2 | %10
w: ||||||||Well, well, well! What|have we here? *|
 (3BBB- B2 B2 B2 |"A7" z B"Ab7"BB"C#dim7" B2"F#7" GG ||"C#m" G2 E2"C#m/B#" C2 G2 | %13
w: Sand- y Claws, _ huh? Oh,|I'm real- ly scared. You're in|my world now, not|
"C#m/B" E2"A7" !fermata!C4 z C |"C#m/G#" G G2 G- G2 EC |"G#7" F2 EC-"C#7" C4 |"CN.C." z8 | %17
w: your world, and|I got friends _ on the|oth- er side. _||
 z4 z2 z B ||[K:Gb]"Ebm" BB z B BB z B |"Abm" BBBB"Bb" B2 z B |"Ebm" BBBB (3BBB z B | %21
w: You're|jok- in! You're jok- in'! I|can't be- lieve my eyes. You're|jok- in me. You got- ta be. This|
"Cb7" BBBB"Bb" B2 z B |"Abm" BB z B BB z B |"E" BBBB"Eb" B2 z B |"Dother" BBBB BB z B/B/ | %25
w: can't be the right guy. He's|an- cient! He's ug- ly! I|don't know which is worse. I|might just split a seam now, if I|
"A7" BBBB"Ab7" B2 z =G ||[K:Eb]"Cm6" cGGG (3GGG- GG | cGGG G2 z G | cGGG (3GGG- GG | %29
w: don't die laugh- ing first. When|Mis- ter Oog- ie Boog- ie says _ there's|trou- ble clouse at hand, you'd|bet- ter pay at- ten- tion now _ 'cause|
"Ab7" _GE"G7" (3(=GF)E"Cm6" C2 ED- ||"C#m" D6"G#7/D#" BG- |"C#m/E" G4"G#7/D#" z2"G#7" z2 | %32
w: I'm the Boog- * ie Man. Oh, _|_ Oh, _|_|
 z"C#m" GGF-"G#7/D#" F E2 F- |"C#m/E" FG z2"G#7/D#" z4 |"C#m" z GGB-"G#7/D#" B2 FG- | %35
w: Sit down at _ my ta-|* ble,|put your minds _ to ease.|
"C#m/E" G4"G#7/D#" z4 |"C#m" z GGG"G#7/B" BGFE |"A7" FE F2- FE E2 |"C#m/G#" z GEG-"G#7" G E2 C- | %39
w: _|If you re- lax, it will en-|a- ble me _ to do|an- y- thing _ I please.|
"C#m""A7" C4"G#7" z3 c ||"Fm" cccc gf z =B |"Cm" cG (3GGG- G2 z ^F |"Cm" GE"G7/D"FD"Cm" EC z D | %43
w: _ And|if you are- n't shak- in', there's|some- thing ver- y wrong. _ 'Cause|this may be the last time you|
"Am7b5" GG"G7" (3(GF)E"Cm" C2 ec || ecec"Cm/A#" ecec |"F7" e2"G7" f/d/c/B/"G#7" !fermata!_g2 z C | %46
w: hear the Boog- * ie song. I got|voo- doo, I got hoo- doo, I got|things I don't e- ven tried. And|
"Cm/G" G G2 G- G2 EC |"G7" F2 EC-"Cm" C2 ED- ||"Fm6" D6 EC- |"Cm" C6 ed- |"Fm6" d4 z _g-gg | %51
w: I got friends _ on the|oth- er side. _ Oh, _|_ oh, _|_ oh, _|_ I'm _ the|
"Ab7" _gg"G7" (3(gf)e"Cm6" c4 |"C#m" z8 | z4 z2 z B |[K:C]"Fmaj" B2 z B B2 z B | B2 B2 B2 z A, | %56
w: Oog- ie Boog- * ie Man.||The|cards, the cards, the|cards will tell the|
"Am" E2 z A,"F7" _EDCD |"Am" EE"E7" D2"Am" C2 z B |"Fm6" B2 z B B2 z2 | B2 B2 B2 z2 | %60
w: past, the pres- ent and the|fu- ture as well. The|cards, the cards,|just take three:|
"Am" EG"Am/G#"EE"Am/G" ED"F#m7b5"CC | %61
w: take a lit- tle trip in- to your|
[K:C]"F7"[Q:1/4=130] _E[Q:1/4=127]"^.5"D[Q:1/4=125] C2"E7"[Q:1/4=120] E4 | %62
w: fu- ture with me.|
[K:C][Q:1/4=130]"^Freely" z4 z2 z d |[K:F]"Dm" fddd fddd | ffed f2 z d | ffed fddA | %66
w: The|sound of roll- ing dice to me is|mu- sic in the air, 'cause|I'm a gamb- ling Boog- ie Man, al-|
[K:C]"Bb7" ff"A7"ed"Dm" d2 z d |"Gm" d_BBB BBBB |"Dm" d3 A/A/ A2 z A | AFGE FDDE | %70
w: though I don't play fair. It's|much more fun, I most con- fess, with|lives on the line. not|mine, of course, but yours, old boy. Now|
 FD"A7"E^C"Dm" D2 z2 |"Am""E7/B" A,8 |"Am/C" z4"E7/B" z c2 A |"Am" c3"E7/B" A4 z | %74
w: that- 'd be just fine.|Yes!|Are you|read- y?|
"Am/C" z4"E7/B" z c2 A |"Am" z2"E7/B" c6 |"Am/C""E7/B" A6 z2 |"Am" z c2 A"E7/B" c2 Ac- | %78
w: Are you|read-|y?|Trans- for- ma- tion cen|
"Am/C" cA z2"E7/B" x4 |"Am" z c2 e"E7/B" f B2 g- |"Am/C" gc z2"E7/B" z4 | %81
w: _ tral.|Re- for- ma- tion cen|_ tral.|
"Am" x d (3ddd"E7/B" d d3 |"Am/C" B B3"E7/B" z4 |"Am" (3z2 c2 A2"E7/B" c4 | %84
w: Trans- mod- i- fi- ca- tion|cen- tral.|Can you feell|
"Am/C" A2 z2"E7/B" z2 z A | %85
w: it? You're|
"Am"[Q:1/4=130] (3c2"G/A"[Q:1/4=126]"^.7" B2"Am"[Q:1/4=123]"^.3" A2"Am"[Q:1/4=120] (3c2"G/A"[Q:1/4=116]"^.7" B2"Am"[Q:1/4=113]"^.3" A2 | %86
w: chang- ing, you're chang- ing, you're|
"Am"[Q:1/4=110] c>B A2 A2 z A |"G/A" A2 G2 G2 A2 |"Am" E6 z B | %89
w: chang- ing all right; I|hope you're sat- is-|fied. But|
[Q:1/4=125]"^Freely" B2 B2"Am/G" B2 z2 |"F7" B2 B2 !fermata!B2 CD |"Am/E" E2 E2 E2 DC | %92
w: if you ain't,|don't blame me! You can|blame my friends on the|
"E7" E4 !fermata!^G4 |"Am""Am/G" A8- |"Dm/F""E7" A8 |"Am""Am/G" z8 |"Dm""E7" z8 |"Am" e8 | A8 | %99
w: oth- er|side!|_|||Ooh,|_|
 z8 |] %100
w: |
V:2
"Bbm6"!mf! .[=G,B,DF]2 .[G,B,DF]2 .[G,B,DF]2 .[G,B,DF]2 | %1
 .[=G,B,DF]2 .[G,B,DF]2 .[G,B,DF]2 .[G,B,DF]2 | .[=G,B,DF]2 .[G,B,DF]2 .[G,B,DF]2 .[G,B,DF]2 | %3
"Gb7" [_FAd]6 B2 |"Bbm6" [B,=DF=G][B,DFG] z2 z4 |!<(! TF4 D2 C2!<)! | [F=Gd]c [FGd]4 [DGB]2 | %7
!>(! =G/^F/G- G=E TD2 B,2!>)! ||[K:E] .[G,CE]2 .[G,CE]2 .[G,CE]2 .[G,CE]2 | %9
 .[G,CE]2 .[G,CE]2 .[G,CE]2 .[G,CE]2 | .[G,CE]2 .[G,CE]2 .[G,CE]2 .[G,CE]2 | %11
 .[A,CE=G]2 .[_A,=C_E_G]2 .[=G,_B,^C=E]2 ^GG || [EG]2 E2 C2 G2 | [CE]2 C2- !fermata![CE]3 C | %14
 [CEG] G2 G- G2 EC | [^B,F]2 EC- C4 |[K:bass] [D,G,] [E,C]2 [E,C]- [E,C] [E,G,]2 E, | %17
 [D,F,] [D,F,]2 [F,G,]- [F,G,]3 =A, ||[K:Gb][K:treble] g e2 =d e B2 B | AB[EAc]A [=DFB]3 f | %20
 (3[Bg]fg (3[GB]=AB (3[EG]FG (3[B,E]=DE | GE[G,=C]G [=DF]2 z B | c A2 c c A2 B | %23
 =B^G=E=B, [=G,_B,_E]3 z | z8 | z4 [G,=C]2 [G,=B,]=G || %26
[K:Eb] [EGc][CEG][CEG][CEG] (3[CEG][CEG][C-EG-] [CEG][CEG] | [EGc][CEG][CEG][CEG] [CEG]3 G | %28
 [EGc][CEG][CEG][CEG] (3[CEG][CEG][CEG]- [CEG]E | ([C_G]E (3[=B,=G]FE [G,C]4) || %30
 [CEG]3 [_CDFG]- [CDFG]3 [=CEG]- | [CEG]3 [_CDFG] z [CDFG]3 | %32
 z [CEG][CEG][_CDF]- [CDF] E2 [=CEF]- | [CEF]G z [_CDFG] z [CDFG]3 | %34
 z [CEG][CEG][_CFB]- [CFB]2 F[=CEG]- | [CEG]3 [_CDFG] z [CDFG]3 | z GGG BGFE | FE F2- FE E2 | %38
 z GEG- G E2 C- | C3 [CEG] z [_CDF]2 _c || [FAc][FAc][FAc][FAc] [Acg][Acf]-[Acf]=B | %41
 [EGc][CEG] (3[CEG][CEG][C-EG-] [CEG]3 ^F | [EG][CE][DF][=B,D] [CE] [G,C]2 D | %43
 [G,E]C[F,D]=B, [E,G,C]2 [Ee]c || ecec ecec | e2 f/d/c/B/ !fermata![^Fc^f]3 E | [CEG] G2 G- G2 EC | %47
 [_CDF]2 E=C- C2 [G,CE][B,DE]- || [B,DE]6 [G,E][E,G,C]- | [E,G,C]6 [G,CE][B,DE]- | [B,DE]6 CD | %51
 [_G,E]C[F,D]=B, [E,=G,C]4 | c c2 c- c G2 G | =B2 Bc- !fermata!c4 |[K:C] [CE]4 [_B,D]4 | %55
 [EG]4 [DF]2 z A, | [CE]2 z A, [B,_E]DCD | [A,CE]E [^G,D]2 [A,C]2 z2 | [G_A]4 [_A,D]4 | %59
 [_Ac]4 [DA]4 | EGEE EDCC |[K:C] _ED C2 [^G,E]4 |[K:C] z4 z2 z d | %63
[K:F] [Af][Fd][Fd][Fd] [Af][Fd][Fd][Fd] | [Af][Af][Ge][Fd] [Af]3 d | %65
 [Af][Af][Ge][Fd] [Af][Fd][Fd]A |[K:C] [_Af][Af][Ge][Fd] [Fd]3 d | %67
 [_Bd][GB][GB][GB] [GB][GB][GB][GB] | [Fd][FA][FA][FA] [FA]3 G | AFGE FDDE | %70
 [A,F]D[G,E]^C [F,D]2 [DF_A_B]2 | z8 | z4 z [DGc]2 A | [Cc]3 A z [Cc]2 A | [Cc]3 A z [DGc]2 A | %75
 z2 [Cc]6 | [A,A]4 z [^Gdg]2 [Ace] | z [Cc]2 A [Cc]2 A[Cc]- | [Cc] [Cc]2 A [Cc]GA[Cc]- | %79
 [Cc] A2 e f B2 [Gg]- | [Gg] c2 A cGA[Cc]- | [Cc]2 (3[DAd][DAd][DAd] [DAd] [EAc]3 | %82
 [Dd] A3 z [^Gdg]3 | (3z2 [Cc]2 A2 [Cc]4 | [CA]2 z2 z [^Gdg]2 d | %85
 (3[EAc]2 [DGB]2 [CEA]2 (3[EAc]2 [DGB]2 [CEA]2 | c>B A2 A3 A | A2 G2 G2 A2 | [A,CE]8 | %89
 [A,CE]4 [A,CE]4 | !fermata![A,C^D]6 C=D | E2 E2 E2 DC | [^G,B,DE]4 !fermata![B,DE^G]4 | %93
 [A,CEA]8- | [A,CEA]4 z [^G,DG] z [A,CEA]- | [A,CEA]8 | [CE^G]8 | !///![CEAc]8 | !///![CEAc]8 | %99
 [CEAc] z z2 z4 |] %100
V:3
 B,,,6 D,,2 |"Csim." C,,4 D,,2 E,,2 | D,,8 | G,,,2 G,,,2 G,,,2 A,,,2 | B,,,2 B,,,2 D,,2 E,,2 | %5
 F,,2 F,,2 D,,2 C,,2 | B,,,2 B,,,2 B,,,2 B,,,2 | =E,,2 E,,2 E,,2 E,,2 ||[K:E] C,,2 C,,2 C,,2 C,,2 | %9
 C,,2 C,,2 C,,2 G,,2 | C,,2 D,,2 E,,2 F,,2 | A,,2 _A,,2 C,,2 D,2 || [C,G,]4 [^B,,G,]4 | %13
 [B,,G,]4 !fermata![A,,^^F,]4 | [G,,G,] z z2 z4 | [G,,D,F,]4 !arpeggio![C,,E,]2 z2 | %16
 !///![C,,C,]8 | !///![C,,C,]4 [C,,C,]2 F,,2 ||[K:Gb] E,,2 z2 B,,=A,,_A,,G,, | %19
 A,,G,,F,,A,, B,,=B,,=C,=D, | E,2 z2 B,,2 z2 | C,G,,E,,C,, B,,,F,,=D,,B,,, | A,,,2 z2 A,,,2 z2 | %23
 =E,,=B,,^G,,E,, (3_E,,F,,^F,, =G,, z | _F,, z D, z A,, z F,, z | =A,,=E,^C,A,, _A,, z =G,,2 || %26
[K:Eb] C,,2 D,,2 E,,2 F,,G,, | C,,2 D,,2 E,,2 F,,G,, | C,,2 D,,2 E,,2 F,,G,, | A,,2 G,,2 C,,4 || %30
 C,, z C, z D,, z D, z | E,, z E, z D,, z D, z | C,, z C, z D,, z D, z | E,, z E, z D,, z D, z | %34
 C,, z C, z D,, z D, z | E,, z E, z D,, z D, z | C,2 [G,E]2 B,,2 [G,_D]2 | %37
 A,,2 [_G,C]2 A,,2 [G,C]2 | G,,2 [E,C]2 G,,2 [D,_C]2 | C,2 G,A,, z G,,3 || F,,2 C,,2 F,,2 A,,B,, | %41
 C,2 D,,2 E,,2 F,,G,, | C,,2 D,,2 E,,2 G,,2 | A,,2 G,,2 C,,2 z2 || [C,G,]4 [B,,G,]4 | %45
 !arpeggio![F,,C,=A,]2 !arpeggio![G,,D,=B,]2 !arpeggio!!fermata![A,,E,C]4 | [G,,G,] z z2 z4 | %47
 [G,,G,]4 !arpeggio![C,,E,]2 E,,2 || F,,2 G,,2 A,,2 C,2 | C,,2 D,,2 E,,2 G,,2 | %50
 F,,2 G,,2 A,,2 C,2 | A,,2 G,,2 C,,4 | [C,,E,]8- | [C,,E,]8 |[K:C] [F,_A,]8 | [F,_A,]8 | %56
 [A,,E,]2 z2 [F,,_E,]2 z2 | [A,,E,]2 [E,,B,,]2 [A,,E,]2 z2 | !arpeggio![F,_A,CD] z z2 F, z z2 | %59
 !arpeggio![F,_A,CD] z z2 !arpeggio![F,A,CD] z z2 | A,,2 ^G,,2 =G,,2 ^F,,2 | %61
[K:C]"^rit" F,,2 F,,2 [=E,,D,]4 |[K:C] A,,A,, G,,2 F,,2 E,,2 |[K:F] D,,2 E,,2 F,,2 A,,2 | %64
 D,,2 E,,2 F,,2 G,,A,, | D,,2 E,,2 F,,2 A,,2 |[K:C] _B,,2 A,,2 D,,D,,E,,^F,, | %67
 G,,2 A,,2 _B,,2 D,2 | D,,2 D,,2 A,,2 F,,G,, | A,,F,,G,,E,, F,,D,,D,,E,, | %70
 F,,D,,E,,^C,, D,,2 _B,,2 | [A,,,A,,] z [C,,C,] z [B,,,B,,] z [D,,D,] z | %72
 [C,,C,] z [A,,,A,,] z [B,,,B,,] z [G,,,G,,] z | [A,,,A,,] z [C,,C,] z [B,,,B,,] z [D,,D,] z | %74
 [C,,C,] z [A,,,A,,] z [B,,,B,,] z [G,,,G,,] z | [A,,,A,,] z [C,,C,] z [B,,,B,,] z [D,,D,] z | %76
 [C,,C,] z [A,,,A,,] z [B,,,B,,] z [G,,,G,,] z | [A,,,A,,] z [C,,C,] z [B,,,B,,] z [D,,D,] z | %78
 [C,,C,] z [A,,,A,,] z [B,,,B,,] z [G,,,G,,] z | [A,,,A,,] z [C,,C,] z [B,,,B,,] z [D,,D,] z | %80
 [C,,C,] z [A,,,A,,] z [B,,,B,,] z [G,,,G,,] z | [A,,,A,,] z [C,,C,] z [B,,,B,,] z [D,,D,] z | %82
 [C,,C,] z [A,,,A,,] z [B,,,B,,] z [G,,,G,,] z | [A,,,A,,] z [C,,C,] z [B,,,B,,] z [D,,D,] z | %84
 [C,,C,] z [A,,,A,,] z [B,,,B,,] z [G,,,G,,] z | %85
"^rit." (3[A,,,A,,]2 [A,,,A,,]2 [A,,,A,,]2 (3[A,,,A,,]2 [A,,,A,,]2 [A,,,A,,]2 | [A,,,A,,]8 | %87
 [A,,,A,,]8 | [A,,,A,,]8 | [A,,,A,,]4 [G,,,G,,]4 | [F,,,F,,]8 | [E,,E,]8 | !fermata![E,,E,]8 | %93
!8vb(! [A,,,A,,] z [E,,,E,,] z [G,,,G,,] z [E,,,E,,] z | %94
 [F,,,F,,] z [D,,,D,,] z [E,,,E,,] z [^G,,,^G,,] z | %95
 [A,,,A,,] z [E,,,E,,] z [G,,,G,,] z [E,,,E,,] z | [F,,,F,,] z [D,,,D,,] z [E,,,E,,]!8vb)! z z2 | %97
 !///![A,,,A,,]8 | !///![A,,,A,,]8 | [A,,,A,,] z z2 z4 |] %100
V:4
 x8 | x8 | x8 | x8 | x8 | x8 | x8 | [B,D]4 x4 ||[K:E] x8 | x8 | x8 | x8 || C4 x4 | x8 | x8 | x8 | %16
[K:bass] x8 | x8 ||[K:Gb][K:treble] z z [GB]2 z z [EG]2 | x8 | x8 | x8 | z2 [CE]2 z2 [CE]2 | x8 | %24
 x8 | x8 ||[K:Eb] x8 | x8 | x8 | x8 || x8 | x8 | x8 | x8 | x8 | x8 | x8 | x8 | x8 | x8 || x8 | x8 | %42
 x8 | x8 || E4 E4 | E2 E2 x4 | x8 | x8 || x8 | x8 | x8 | x8 | C8- | C8 |[K:C] x8 | x8 | x8 | x8 | %58
 x8 | G2 G2 x4 | [A,C]2 [A,C]2 [A,C]2 A,2 |[K:C] [A,C]2 A,2 x4 |[K:C] x8 |[K:F] x8 | x8 | x8 | %66
[K:C] x8 | x8 | x8 | x8 | x8 | x8 | x8 | x8 | x8 | x8 | x8 | x8 | x8 | x8 | x8 | x8 | x8 | x8 | %84
 x8 | x8 | [CE]4 [CE]4 | [B,D]4 [B,D]4 | x8 | x8 | x8 | [A,C]8 | x8 | x8 | x8 | x8 | x8 | x8 | x8 | %99
 x8 |] %100

